FrontEnd/app/images/controls/common/Print_25x25.svg

<?xml version="1.0" encoding="UTF-8" standalone="no"?>
<!-- Generator: Adobe Illustrator 19.1.0, SVG Export Plug-In . SVG Version: 6.00 Build 0)  -->

<svg
   xmlns:dc="http://purl.org/dc/elements/1.1/"
   xmlns:cc="http://creativecommons.org/ns#"
   xmlns:rdf="http://www.w3.org/1999/02/22-rdf-syntax-ns#"
   xmlns:svg="http://www.w3.org/2000/svg"
   xmlns="http://www.w3.org/2000/svg"
   xmlns:sodipodi="http://sodipodi.sourceforge.net/DTD/sodipodi-0.dtd"
   xmlns:inkscape="http://www.inkscape.org/namespaces/inkscape"
   version="1.1"
   id="Layer_1"
   x="0px"
   y="0px"
   viewBox="0 0 25 25"
   enable-background="new 0 0 25 25"
   xml:space="preserve"
   inkscape:version="0.91 r13725"
   sodipodi:docname="Print_25x25.svg"><metadata
     id="metadata3424"><rdf:RDF><cc:Work
         rdf:about=""><dc:format>image/svg+xml</dc:format><dc:type
           rdf:resource="http://purl.org/dc/dcmitype/StillImage" /></cc:Work></rdf:RDF></metadata><defs
     id="defs3422" /><sodipodi:namedview
     pagecolor="#ffffff"
     bordercolor="#666666"
     borderopacity="1"
     objecttolerance="10"
     gridtolerance="10"
     guidetolerance="10"
     inkscape:pageopacity="0"
     inkscape:pageshadow="2"
     inkscape:window-width="1440"
     inkscape:window-height="747"
     id="namedview3420"
     showgrid="false"
     inkscape:zoom="9.44"
     inkscape:cx="-3.0190678"
     inkscape:cy="12.5"
     inkscape:window-x="-8"
     inkscape:window-y="-8"
     inkscape:window-maximized="1"
     inkscape:current-layer="Layer_1" /><g
     id="Layer_56_1_"
     transform="matrix(0.95762712,0,0,0.96610169,0.52966102,0.42372881)"><g
       id="g3411"><circle
         cx="12.5"
         cy="12.5"
         r="11.7"
         id="circle3413"
         style="fill:none" /><path
         d="M 12.5,25 C 5.6,25 0,19.4 0,12.5 0,5.6 5.6,0 12.5,0 19.4,0 25,5.6 25,12.5 25,19.4 19.4,25 12.5,25 Z m 0,-23.4 c -6,0 -10.9,4.9 -10.9,10.9 0,6 4.9,10.9 10.9,10.9 6,0 10.9,-4.9 10.9,-10.9 0,-6 -4.9,-10.9 -10.9,-10.9 z"
         id="path3415"
         inkscape:connector-curvature="0"
         style="fill:#343434" /></g><path
       d="m 9.3,7.4 6.5,0 0,2.4 -6.5,0 c 0,0 0,-2.4 0,-2.4 z m 6.4,10.3 -6.4,0 0,-3.1 6.5,0 0,3.1 z m 2,-2.6 c 0,0.4 -0.3,0.6 -0.6,0.6 l -0.6,0 0,-1.7 -7.9,0 0,1.8 -0.6,0 c -0.4,0 -0.6,-0.3 -0.6,-0.6 l 0,-4.1 c 0,-0.4 0.3,-0.6 0.6,-0.6 l 9.1,0 c 0.4,0 0.6,0.3 0.6,0.6 l 0,4 z m -2.1,-3 0.7,0 0,-0.7 -0.7,0 0,0.7 z"
       id="path3417"
       inkscape:connector-curvature="0"
       style="fill:#343434" /></g><g
     id="Layer_61_2_"
     transform="matrix(0.95762712,0,0,0.96610169,0.52966102,0.42372881)" /></svg>

<?xml version="1.0" encoding="utf-8"?>
<!-- Generator: Adobe Illustrator 19.1.0, SVG Export Plug-In . SVG Version: 6.00 Build 0)  -->
<!DOCTYPE svg PUBLIC "-//W3C//DTD SVG 1.1//EN" "http://www.w3.org/Graphics/SVG/1.1/DTD/svg11.dtd">
<svg version="1.1" id="Layer_1" xmlns="http://www.w3.org/2000/svg" xmlns:xlink="http://www.w3.org/1999/xlink" x="0px" y="0px"
	 viewBox="0 0 25 25" enable-background="new 0 0 25 25" xml:space="preserve">
<g id="Layer_56_1_">
	<g>
		<circle fill="none" cx="12.5" cy="12.5" r="11.7"/>
		<path fill="#343434" d="M12.5,25C5.6,25,0,19.4,0,12.5S5.6,0,12.5,0S25,5.6,25,12.5S19.4,25,12.5,25z M12.5,1.6
			c-6,0-10.9,4.9-10.9,10.9s4.9,10.9,10.9,10.9s10.9-4.9,10.9-10.9S18.5,1.6,12.5,1.6z"/>
	</g>
	<path fill="#343434" d="M9.3,7.4h6.5v2.4H9.3C9.3,9.8,9.3,7.4,9.3,7.4z M15.7,17.7H9.3v-3.1h6.5V17.7z M17.7,15.1
		c0,0.4-0.3,0.6-0.6,0.6h-0.6V14H8.6v1.8H8c-0.4,0-0.6-0.3-0.6-0.6v-4.1c0-0.4,0.3-0.6,0.6-0.6h9.1c0.4,0,0.6,0.3,0.6,0.6V15.1z
		 M15.6,12.1h0.7v-0.7h-0.7V12.1z"/>
</g>
<g id="Layer_61_2_">
</g>
</svg>
